web/themes/custom/oh_my_pasta/images/icons/close.svg

<svg width="31" height="31" viewBox="0 0 31 31" fill="currentColor" xmlns="http://www.w3.org/2000/svg">
<g id="close">
<path d="M2.00715 31.0248C1.49301 31.0248 0.978508 30.828 0.587206 30.4363C-0.19834 29.6512 -0.19834 28.3816 0.587206 27.5965L27.569 0.614274C28.3542 -0.170904 29.6237 -0.170904 30.4089 0.614274C31.1945 1.39945 31.1945 2.66898 30.4089 3.45416L3.42709 30.4363C3.03321 30.8298 2.52128 31.0248 2.00715 31.0248Z"/>
<path d="M28.989 31.0248C28.4748 31.0248 27.9607 30.828 27.569 30.4363L0.587206 3.45416C-0.19834 2.66898 -0.19834 1.39945 0.587206 0.614274C1.37238 -0.170904 2.64154 -0.170904 3.42709 0.614274L30.4089 27.5965C31.1945 28.3816 31.1945 29.6512 30.4089 30.4363C30.0172 30.8298 29.5031 31.0248 28.989 31.0248Z"/>
</g>
</svg>

<svg width="31" height="31" fill="currentColor" xmlns="http://www.w3.org/2000/svg"><path d="M2.007 31.025a2.002 2.002 0 01-1.42-.589 2.006 2.006 0 010-2.84L27.57.614a2.006 2.006 0 012.84 0 2.006 2.006 0 010 2.84L3.427 30.436a1.999 1.999 0 01-1.42.589z"/><path d="M28.989 31.025a2.003 2.003 0 01-1.42-.589L.587 3.454a2.006 2.006 0 010-2.84 2.006 2.006 0 012.84 0L30.41 27.596a2.005 2.005 0 010 2.84 1.995 1.995 0 01-1.42.589z"/></svg>
